!!!!SEGMENT: pl-kk--kk-i-40--002-002_monte-philippe-de--missa-et-in-terra.krn
!!!cenid: 16xx:1282
!!!COM: Monte, Philippe de
!!!COM-rismid: pe30005218
!!!CDT: 1521-1603/07/04
!!!CNT: Flemish
!!!OPR: Missa
!!!OTL: Et in terra
!!!OMV: 002
!!!PDT:
!!!AGN: Sacred; Mass
!!!SMS-siglum: PL-Kk
!!!SMS-shelfmark: Kk.I.40
!!!SMS-shelfwork: 002-002 M
!!!SMS-variant:
!!!SMS-altvar:
!!!NIFC-rismid: 1001154488
!!!URL-scan: http://repozytorium.nifc.pl/skany/pl-kk-nut--i-40
!!!ONB-nifc: UWAGA: części Mszy: 1. Kyrie, 2. Et in terra, 3. Sanctus, 4. Agnus Dei. Skan 0005
**kern	**text
*I"Baſso Ripieno.	*
*I'B rip	*
*clefF3	*
*k[b-]	*
*g:	*
*M2/1	*
*met(C|)	*
=1-	=1-
!LO:TX:b:t=Et in terra	!
!LO:TX:t=P:problem:przy kluczu BB- B-	!
00r	.
=2-	=2-
.	.
=3-	=3-
!LO:TX:t=P:problem:kreska pseudotaktowa	!
00r	.
=4-	=4-
.	.
=5-	=5-
2r	.
1d	Bo-
*2\right	*
!LO:TX:t=P:problem:kreska pseudotaktowa	!
2D/	-nae
=6-	=6-
2E-X/	Vo-
2D/	-lun-
!LO:TX:t=P:problem:kreska pseudotaktowa	!
1C	-ta-
=7-	=7-
2BB-,</	-tis
*	*ij
1B-	Bo-
!LO:TX:t=P:problem:kreska pseudotaktowa	!
2E-X/	-nae
=8-	=8-
2B-\	Vo-
2F\	-lun-
1G	-ta-
=9-	=9-
!LO:TX:t=P:problem:kreska pseudotaktowa	!
1D,<	-tis
*	*Xij
00r	.
=10-	=10-
.	.
=11-	=11-
.	.
!LO:TX:t=P:problem:kreska pseudotaktowa	!
0r	.
=12-	=12-
.	.
1B-	A-
=13-	=13-
!LO:TX:t=P:problem:kreska pseudotaktowa	!
1E-X	-do-
1F	-ra-
=14-	=14-
!LO:TX:t=P:problem:kreska pseudotaktowa	!
1C	-m(us)
2D,</	Te
!LO:TX:t=P:problem:kreska pseudotaktowa	!
2d\	glo-
=15-	=15-
!LO:TX:a:t=P:problem:♭ above	!
2B-X\	-ri-
!LO:TX:t=P:problem:kreska pseudotaktowa	!
2A\	-fi-
2B-\	-ca-
2G\	-m(us)
=16-	=16-
!LO:TX:t=P:problem:kreska pseudotaktowa	!
0F,<	Te
=17-	=17-
00r	.
=18-	=18-
.	.
=19-	=19-
!LO:TX:t=P:problem:kreska pseudotaktowa	!
0r	.
=20-	=20-
2.F\	pro-
!LO:TX:t=P:problem:kreska pseudotaktowa	!
4F\	-pter
2F\	mag-
!LO:TX:t=P:problem:kreska pseudotaktowa	!
2F\	-n(am)
!LO:LB:g=original	!
=21-	=21-
2.B-\	glo-
4A\	-ri-
2G,<\	-am
2A\	Tu-
=22-	=22-
!LO:TX:t=P:problem:kreska pseudotaktowa	!
1D,<	-am
0r	.
=23-	=23-
.	.
!LO:TX:t=P:problem:kreska pseudotaktowa	!
1r	.
=24-	=24-
2r	.
!LO:TX:t=P:problem:kreska pseudotaktowa	!
2G\	De-
2G,<\	-us
2.G\	Pa-
=25-	=25-
.	.
4G,<\	-ter
!LO:TX:t=P:problem:kreska pseudotaktowa	!
2F\	O-
2B-\	-mni-
2B-\	-po-
=26-	=26-
!LO:TX:t=P:problem:kreska pseudotaktowa	!
1A,<	-tens.
0r	.
=27-	=27-
.	.
!LO:TX:t=P:problem:kreska pseudotaktowa	!
1r	.
=28-	=28-
2r	.
1G	Je-
2C/	-su
=29-	=29-
0D	X-
=30-	=30-
2G,<\	-te
2.F/	Do-
4F/	-mi-
!LO:TX:t=P:problem:kreska pseudotaktowa	!
2F\	-ne
=31-	=31-
2B-\	De-
!LO:TX:t=P:problem:kreska pseudotaktowa	!
2F,<\	-us
4B-\	A-
4G\	-gn(us)
!LO:TX:t=P:problem:kreska pseudotaktowa	!
2A\	De-
=32-	=32-
2D,</	-i
!LO:TX:t=P:problem:kreska pseudotaktowa:między nutą a kropką	!
2.G\	Fi-
4G\	-li-
2F#X\	-(us)
=33-	=33-
0G	Pa-
=34-	=34-
0Cl;	-tris.
!LO:LB:g=original	!
=35||	=35||
*M2/1	*
*met(C|)	*
!LO:TX:t=P:problem:kreska pseudotaktowa	!
1D	Qui
!LO:TX:t=P:problem:kreska pseudotaktowa	!
1G	tol-
=36-	=36-
(4F\	.
4G\	.
4A\	.
4B-\)	.
2c,<\	-lis
!LO:TX:t=P:problem:kreska pseudotaktowa	!
2G\	p(e)c-
=37-	=37-
2A\	-(ca)-
!LO:TX:t=P:problem:kreska pseudotaktowa	!
2B-\	-ta
1A	mun-
=38-	=38-
!LO:TX:t=P:problem:kreska pseudotaktowa	!
1D	-di
!LO:TX:t=P:problem:kreska pseudotaktowa	!
00r	.
=39-	=39-
.	.
=40-	=40-
.	.
!LO:TX:t=P:problem:kreska pseudotaktowa	!
1D	qui
=41-	=41-
!LO:TX:t=P:problem:kreska pseudotaktowa	!
1G	tol-
(4F\	-lis
4G\	.
4A\	.
!LO:TX:t=P:problem:kreska pseudotaktowa	!
4B-\)	.
=42-	=42-
2c,<\	.
!LO:TX:t=P:problem:kreska pseudotaktowa	!
2G\	pec-
2A\	-ca-
2B-\	-ta
=43-	=43-
!LO:TX:t=P:problem:kreska pseudotaktowa	!
1A	mun-
2D,</	-di
2.B-\	Sus-
=44-	=44-
.	.
4BB-/	-ci-
!LO:TX:t=P:problem:kreska pseudotaktowa	!
2BB-/	-pe
2F/	de-
2BB-/	-pre-
=45-	=45-
2F\	-ca-
!LO:TX:t=P:problem:kreska pseudotaktowa	!
2G\	-ti-
2A\	-o-
!LO:TX:t=P:problem:kreska pseudotaktowa	!
2B-\	-nem
=46-	=46-
*lig	*
1E-X	no-
1F	.
*Xlig	*
=47-	=47-
2BB-,</	-stram
!LO:TX:t=P:problem:kreska pseudotaktowa	!
!LO:SIC:v:t=custos B-	!
2B-\	Qui
!LO:LB:g=original	!
2B-\	se-
4B-\	-des
!LO:TX:t=P:problem:kreska pseudotaktowa	!
4B-\	ad
=48-	=48-
4G\	dex-
4A\	-te-
!LO:TX:t=P:problem:kreska pseudotaktowa	!
2D/	-r(am)
2G\	P(at)-
!LO:TX:t=P:problem:kreska pseudotaktowa	!
2D/	-ris,
=49-	=49-
!LO:TX:t=P:problem:kreska pseudotaktowa	!
0r	.
=50-	=50-
1.BB-	mi-
!LO:TX:t=P:problem:kreska pseudotaktowa	!
2C/	-ſe-
=51-	=51-
2D/	-re-
2E-X/	-re
!LO:TX:t=P:problem:kreska pseudotaktowa	!
1D	no-
=52-	=52-
2G,<\	-bis.
1G	Quo-
!LO:TX:t=P:problem:kreska pseudotaktowa	!
2G\	-ni-
=53-	=53-
2G\	-am.
4r	.
!LO:TX:t=P:problem:kreska pseudotaktowa	!
4D/	Tu
4F/	so-
4F/	-l(us)
2G\	S(an)-
=54-	=54-
2D,</	-ct(us)
!LO:TX:t=P:problem:kreska pseudotaktowa	!
2A\	Tu
4B-\	so-
4G\	-l(us)
2d\	S(an)-
=55-	=55-
!LO:TX:t=P:problem:kreska pseudotaktowa	!
1G,<	-ct(us)
!LO:TX:t=P:problem:kreska pseudotaktowa	!
0r	.
=56-	=56-
.	.
2A\	Tu
!LO:TX:t=P:problem:kreska pseudotaktowa	!
2B-\	so-
=57-	=57-
2A,<\	-l(us)
!LO:TX:t=P:problem:kreska pseudotaktowa	!
2G\	Do-
2F#X\	-mi-
2G,<\	-n(us)
=58-	=58-
2D,</	Tu
!LO:TX:t=P:problem:kreska pseudotaktowa	!
2G\	so-
!LO:LB:g=original	!
2Fny,</	-lus
2D/	al-
=59-	=59-
2.d\	-tiſ-
!LO:TX:t=P:problem:kreska pseudotaktowa	!
4d\	-si-
2c,<\	-m(us)
1B-\	Je-
=60-	=60-
.	.
!LO:TX:t=P:problem:kreska pseudotaktowa	!
2F\	-su
1G	X-
=61-	=61-
!LO:TX:t=P:problem:kreska pseudotaktowa	!
1Eny	-te
0r	.
=62-	=62-
.	.
2r	.
!LO:TX:t=P:problem:kreska pseudotaktowa	!
2G\	Cum
=63-	=63-
2E-X/	San-
!LO:TX:t=P:problem:kreska pseudotaktowa	!
2F/	-cto
2C/	Spi-
!LO:TX:t=P:problem:kreska pseudotaktowa	!
2D/	-ri-
=64-	=64-
4G\	-tu
4G\	in
!LO:TX:t=P:problem:kreska pseudotaktowa	!
[<2G\	glo-
!LO:N:xstem:cue	!
4G\]	.
4G\	-ri-
!LO:TX:t=P:problem:kreska pseudotaktowa	!
2G\	-a
=65-	=65-
4D/	De-
4G/	i
!LO:TX:t=P:problem:kreska pseudotaktowa	!
2A\	Pa-
4D,</	-tris
4D/	in
2.d\	glo-
=66-	=66-
.	.
4d\	-ri-
!LO:TX:t=P:problem:kreska pseudotaktowa	!
2d\	-a
4G\	De-
4c\	-i
!LO:TX:t=P:problem:kreska pseudotaktowa	!
2d\	Pa-
=67-	=67-
2G\	-tris.
!LO:TX:t=P:problem:kreska pseudotaktowa	!
2r	.
0r	.
=68-	=68-
.	.
!LO:TX:t=P:problem:kreska pseudotaktowa	!
1r	.
!LO:PB:g=original	!
=69-	=69-
2r	.
!LO:TX:t=P:problem:kreska pseudotaktowa	!
[<2F\	A-
!LO:N:xstem:cue	!
4F\]	.
4G\	.
4A\	.
!LO:TX:t=P:problem:kreska pseudotaktowa	!
4B-\	.
=70-	=70-
2.c\	.
!LO:TX:t=P:problem:kreska pseudotaktowa	!
4G\	.
4A\	.
4B-\	.
!LO:TX:t=P:problem:kreska pseudotaktowa	!
2A\	.
=71-	=71-
2D,</	-men
2.BB-/	A-
4C/	.
4D/	.
!LO:TX:t=P:problem:kreska pseudotaktowa	!
4Eny/	.
=72-	=72-
2F/	.
!LO:TX:t=P:problem:kreska pseudotaktowa	!
2C/	.
2D/	.
!LO:TX:t=P:problem:kreska pseudotaktowa	!
2E-X/	.
=73-	=73-
0D	.
=74-	=74-
0Gl;	-men.
==	==
*-	*-
!!!RDF**kern: < = below
!!!RDF**kern: l = terminal long
!!!ENC: Andrzej Kubiczek
!!!END: 2021-08-02
!!!ENC: Berenika Jozajtis
!!!END: 2021-07-04
